src/assets/svg/handshake.svg

<svg width="39.146" height="27.504" fill="none" xmlns="http://www.w3.org/2000/svg">
  <path d="M18.28 26.55c-.07.27-.22.51-.44.68-.22.18-.49.27-.77.27-.11 0-.21-.01-.31-.04l-5-1.25a1.18 1.18 0 0 1-.4-.17l-3.75-2.5c-.27-.19-.46-.47-.53-.8-.06-.32 0-.66.19-.94.18-.27.47-.46.79-.53.33-.06.67 0 .94.19l3.57 2.38 4.79 1.2c.16.04.31.11.45.2.13.1.24.22.33.36.08.14.14.3.16.46.03.17.02.33-.02.49Zm20.73-15.07c-.1.31-.26.6-.48.85-.21.25-.47.45-.77.6l-3.7 1.85-2.35 2.35-6.25 6.25a1.262 1.262 0 0 1-1.19.33l-10-2.5c-.15-.04-.3-.1-.42-.19l-8.68-6.2-3.79-1.89c-.6-.3-1.05-.82-1.26-1.45a2.49 2.49 0 0 1 .14-1.91l3.88-7.76c.3-.59.82-1.04 1.45-1.25.62-.21 1.31-.17 1.9.13l3.45 1.72L19.22.04c.23-.06.47-.06.69 0l8.28 2.37L31.64.69c.59-.3 1.28-.34 1.91-.13.63.21 1.14.66 1.44 1.25l3.88 7.76c.15.3.24.62.26.94.03.33-.01.66-.12.97Zm-10.07 4.87-4.33-3.46c-3.05 2.5-6.93 2.83-10.14.78-.32-.2-.58-.47-.78-.79-.2-.32-.32-.68-.36-1.05-.04-.37 0-.75.12-1.1.13-.36.33-.68.6-.94 0-.01 0-.01.01-.01l7.01-6.8-1.5-.43-7.88 2.25-4.28 8.55 7.69 5.49 9.08 2.28 4.76-4.77Zm2.85-2.85L27.55 5h-4.98l-6.75 6.56c1.98 1.27 5.08 1.61 7.86-1.19a1.255 1.255 0 0 1 1.67-.1l5.38 4.31 1.06-1.08Z" fill="#FCFCFC"/>
</svg>

<svg width="39.146118" height="27.504395" viewBox="0 0 39.1461 27.5044" fill="none" xmlns="http://www.w3.org/2000/svg" xmlns:xlink="http://www.w3.org/1999/xlink">
	<desc>
			Created with Pixso.
	</desc>
	<defs/>
	<path id="Vector" d="M18.28 26.55C18.21 26.82 18.06 27.06 17.84 27.23C17.62 27.41 17.35 27.5 17.07 27.5C16.96 27.5 16.86 27.49 16.76 27.46L11.76 26.21C11.62 26.18 11.48 26.12 11.36 26.04L7.61 23.54C7.34 23.35 7.15 23.07 7.08 22.74C7.02 22.42 7.08 22.08 7.27 21.8C7.45 21.53 7.74 21.34 8.06 21.27C8.39 21.21 8.73 21.27 9 21.46L12.57 23.84L17.36 25.04C17.52 25.08 17.67 25.15 17.81 25.24C17.94 25.34 18.05 25.46 18.14 25.6C18.22 25.74 18.28 25.9 18.3 26.06C18.33 26.23 18.32 26.39 18.28 26.55ZM39.01 11.48C38.91 11.79 38.75 12.08 38.53 12.33C38.32 12.58 38.06 12.78 37.76 12.93L34.06 14.78L31.71 17.13L25.46 23.38C25.3 23.54 25.11 23.65 24.91 23.7C24.7 23.76 24.48 23.76 24.27 23.71L14.27 21.21C14.12 21.17 13.97 21.11 13.85 21.02L5.17 14.82L1.38 12.93C0.78 12.63 0.33 12.11 0.12 11.48C-0.09 10.85 -0.04 10.17 0.26 9.57L4.14 1.81C4.44 1.22 4.96 0.77 5.59 0.56C6.21 0.35 6.9 0.39 7.49 0.69L10.94 2.41L19.22 0.04C19.45 -0.02 19.69 -0.02 19.91 0.04L28.19 2.41L31.64 0.69C32.23 0.39 32.92 0.35 33.55 0.56C34.18 0.77 34.69 1.22 34.99 1.81L38.87 9.57C39.02 9.87 39.11 10.19 39.13 10.51C39.16 10.84 39.12 11.17 39.01 11.48ZM28.94 16.35L24.61 12.89C21.56 15.39 17.68 15.72 14.47 13.67C14.15 13.47 13.89 13.2 13.69 12.88C13.49 12.56 13.37 12.2 13.33 11.83C13.29 11.46 13.33 11.08 13.45 10.73C13.58 10.37 13.78 10.05 14.05 9.79C14.05 9.78 14.05 9.78 14.06 9.78L21.07 2.98L19.57 2.55L11.69 4.8L7.41 13.35L15.1 18.84L24.18 21.12L28.94 16.35ZM31.79 13.5L27.55 5L22.57 5L15.82 11.56C17.8 12.83 20.9 13.17 23.68 10.37C23.9 10.15 24.19 10.02 24.5 10C24.8 9.98 25.11 10.08 25.35 10.27L30.73 14.58L31.79 13.5Z" fill="#FCFCFC" fill-opacity="1.000000" fill-rule="nonzero"/>
</svg>
